;FLAVOR:Marlin
;TIME:544
;Filament used: 0.148944m
;Layer height: 0.2
;MINX:102.512
;MINY:102.512
;MINZ:0.2
;MAXX:132.488
;MAXY:132.488
;MAXZ:29.8
;TARGET_MACHINE.NAME:Creality CR-6 SE
;Generated with Cura_SteamEngine 5.9.1
M140 S60
M105
M190 S60
M104 S220
M105
M109 S220
M82 ;absolute extrusion mode
M201 X500.00 Y500.00 Z100.00 E5000.00 ;Setup machine max acceleration
M203 X500.00 Y500.00 Z10.00 E50.00 ;Setup machine max feedrate
M204 P500.00 R1000.00 T500.00 ;Setup Print/Retract/Travel acceleration
M205 X8.00 Y8.00 Z0.40 E5.00 ;Setup Jerk
M220 S100 ;Reset Feedrate
M221 S100 ;Reset Flowrate

G28 ;Home

G92 E0 ;Reset Extruder
G1 Z2.0 F3000 ;Move Z Axis up
G1 X10.1 Y20 Z0.28 F5000.0 ;Move to start position
G1 X10.1 Y200.0 Z0.28 F1500.0 E15 ;Draw the first line
G1 X10.4 Y200.0 Z0.28 F5000.0 ;Move to side a little
G1 X10.4 Y20 Z0.28 F1500.0 E30 ;Draw the second line
G92 E0 ;Reset Extruder
G1 Z2.0 F3000 ;Move Z Axis up

G92 E0
G92 E0
G1 F1500 E-6.5
;LAYER_COUNT:149
;LAYER:0
M107
G0 F6000 X119.545 Y132.338 Z0.2
;TYPE:SKIRT
G1 F1500 E0
G1 F1200 X118.839 Y132.415 E0.02362
G1 X118.388 Y132.452 E0.03867
G1 X117.45 Y132.488 E0.06989
G1 X116.449 Y132.438 E0.10323
G1 X115.616 Y132.356 E0.13107
G1 X114.687 Y132.221 E0.16229
G1 X113.723 Y131.994 E0.19523
G1 X113.062 Y131.802 E0.21812
G1 X112.608 Y131.656 E0.23399
G1 X111.699 Y131.32 E0.26622
G1 X110.961 Y130.976 E0.2933
G1 X110.315 Y130.639 E0.31753
G1 X109.926 Y130.423 E0.33233
G1 X109.128 Y129.932 E0.3635
G1 X108.403 Y129.398 E0.39344
G1 X107.824 Y128.927 E0.41827
G1 X107.505 Y128.655 E0.43221
G1 X106.794 Y127.988 E0.46464
G1 X106.151 Y127.269 E0.49672
G1 X105.642 Y126.645 E0.5235
G1 X105.102 Y125.921 E0.55354
G1 X104.57 Y125.06 E0.58721
G1 X104.191 Y124.365 E0.61354
G1 X103.995 Y123.976 E0.62802
G1 X103.595 Y123.089 E0.66039
G1 X103.288 Y122.216 E0.69117
G1 X103.052 Y121.436 E0.71827
G1 X102.815 Y120.492 E0.75064
G1 X102.663 Y119.549 E0.78241
G1 X102.619 Y119.168 E0.79517
G1 X102.548 Y118.382 E0.82142
G1 X102.512 Y117.48 E0.85144
G1 X102.565 Y116.427 E0.88651
G1 X102.645 Y115.616 E0.91361
G1 X102.786 Y114.651 E0.94605
G1 X103.008 Y113.713 E0.97811
G1 X103.198 Y113.062 E1.00066
G1 X103.344 Y112.607 E1.01656
G1 X103.684 Y111.693 E1.04899
G1 X104.107 Y110.804 E1.08174
G1 X104.496 Y110.076 E1.10919
G1 X104.999 Y109.234 E1.14181
G1 X105.69 Y108.293 E1.18064
G1 X106.206 Y107.667 E1.20763
G1 X106.858 Y106.948 E1.23991
G1 X107.498 Y106.351 E1.26902
G1 X108.038 Y105.894 E1.29255
G1 X108.442 Y105.571 E1.30975
G1 X109.199 Y105.021 E1.34087
G1 X109.921 Y104.579 E1.36903
G1 X110.612 Y104.203 E1.39519
G1 X111.015 Y103.998 E1.41023
G1 X111.902 Y103.598 E1.44259
G1 X112.783 Y103.288 E1.47366
G1 X113.563 Y103.052 E1.50076
G1 X114.507 Y102.815 E1.53313
G1 X115.459 Y102.661 E1.56521
G1 X116.166 Y102.585 E1.58886
G1 X116.618 Y102.548 E1.60394
G1 X117.52 Y102.512 E1.63397
G1 X118.574 Y102.565 E1.66907
G1 X119.385 Y102.645 E1.69617
G1 X120.313 Y102.779 E1.72736
G1 X121.28 Y103.005 E1.76039
G1 X121.964 Y103.206 E1.7841
G1 X122.429 Y103.357 E1.80036
G1 X123.305 Y103.684 E1.83146
G1 X124.014 Y104.012 E1.85744
G1 X124.669 Y104.353 E1.882
G1 X125.081 Y104.582 E1.89768
G1 X125.879 Y105.073 E1.92885
G1 X126.593 Y105.597 E1.9583
G1 X126.924 Y105.862 E1.9724
G1 X127.491 Y106.34 E1.99707
G1 X128.215 Y107.021 E2.03013
G1 X128.848 Y107.728 E2.06169
G1 X129.355 Y108.349 E2.08836
G1 X129.914 Y109.101 E2.11952
G1 X130.421 Y109.921 E2.15159
G1 X130.791 Y110.6 E2.17731
G1 X130.993 Y110.996 E2.19209
G1 X131.392 Y111.877 E2.22426
G1 X131.655 Y112.603 E2.24994
G1 X131.867 Y113.284 E2.27366
G1 X131.992 Y113.719 E2.28872
G1 X132.209 Y114.628 E2.3198
G1 X132.336 Y115.446 E2.34733
G1 X132.38 Y115.825 E2.36002
G1 X132.452 Y116.617 E2.38647
G1 X132.488 Y117.519 E2.4165
G1 X132.436 Y118.57 E2.4515
G1 X132.356 Y119.384 E2.4787
G1 X132.221 Y120.316 E2.51002
G1 X131.939 Y121.472 E2.5496
G1 X131.707 Y122.234 E2.57609
G1 X131.375 Y123.168 E2.60906
G1 X130.978 Y124.035 E2.64078
G1 X130.796 Y124.391 E2.65408
G1 X130.418 Y125.082 E2.68027
G1 X129.927 Y125.88 E2.71144
G1 X129.41 Y126.584 E2.74049
G1 X129.143 Y126.918 E2.75471
G1 X128.657 Y127.494 E2.77977
G1 X128.004 Y128.19 E2.81152
G1 X127.454 Y128.692 E2.83628
G1 X126.947 Y129.118 E2.85831
G1 X126.544 Y129.438 E2.87543
G1 X125.76 Y130.006 E2.90763
G1 X125.091 Y130.413 E2.93367
G1 X124.4 Y130.791 E2.95987
G1 X123.995 Y130.997 E2.97498
G1 X123.108 Y131.398 E3.00736
G1 X122.21 Y131.714 E3.03902
G1 X121.428 Y131.95 E3.06619
G1 X120.484 Y132.187 E3.09856
G1 X119.545 Y132.338 E3.13019
G0 F6000 X119.502 Y131.94
G1 F1200 X118.806 Y132.016 E3.15348
G1 X118.372 Y132.052 E3.16796
G1 X117.47 Y132.088 E3.19799
G1 X116.469 Y132.038 E3.23132
G1 X115.674 Y131.96 E3.25789
G1 X114.745 Y131.825 E3.28911
G1 X113.835 Y131.61 E3.32021
G1 X113.184 Y131.421 E3.34276
G1 X112.746 Y131.281 E3.35805
G1 X111.868 Y130.957 E3.38918
G1 X111.146 Y130.621 E3.41567
G1 X110.509 Y130.289 E3.43956
G1 X110.136 Y130.082 E3.45375
G1 X109.338 Y129.591 E3.48491
G1 X108.655 Y129.088 E3.51312
G1 X108.083 Y128.623 E3.53764
G1 X107.778 Y128.363 E3.55097
G1 X107.092 Y127.721 E3.58222
G1 X106.461 Y127.016 E3.61369
G1 X105.963 Y126.406 E3.63988
G1 X105.423 Y125.682 E3.66992
G1 X104.921 Y124.869 E3.7017
G1 X104.548 Y124.184 E3.72765
G1 X104.359 Y123.811 E3.74155
G1 X103.972 Y122.956 E3.77277
G1 X103.671 Y122.1 E3.80295
G1 X103.44 Y121.338 E3.82943
G1 X103.21 Y120.428 E3.86065
G1 X103.06 Y119.503 E3.89182
G1 X103.017 Y119.132 E3.90424
G1 X102.948 Y118.366 E3.92982
G1 X102.912 Y117.464 E3.95984
G1 X102.963 Y116.466 E3.99308
G1 X103.041 Y115.673 E4.01958
G1 X103.175 Y114.743 E4.05083
G1 X103.392 Y113.825 E4.08221
G1 X103.579 Y113.184 E4.10442
G1 X103.719 Y112.746 E4.11971
G1 X104.045 Y111.865 E4.15096
G1 X104.46 Y110.992 E4.1831
G1 X104.84 Y110.28 E4.20995
G1 X105.321 Y109.471 E4.24125
G1 X105.999 Y108.547 E4.27937
G1 X106.503 Y107.935 E4.30574
G1 X107.131 Y107.24 E4.33689
G1 X107.756 Y106.656 E4.36534
G1 X108.288 Y106.206 E4.38852
G1 X108.677 Y105.895 E4.40508
G1 X109.434 Y105.345 E4.43621
G1 X110.113 Y104.93 E4.46267
G1 X110.793 Y104.559 E4.48844
G1 X111.18 Y104.362 E4.50288
G1 X112.035 Y103.975 E4.5341
G1 X112.899 Y103.671 E4.56456
G1 X113.661 Y103.44 E4.59104
G1 X114.571 Y103.21 E4.62226
G1 X115.502 Y103.059 E4.65363
G1 X116.199 Y102.984 E4.67695
G1 X116.634 Y102.948 E4.69147
G1 X117.536 Y102.912 E4.72149
G1 X118.535 Y102.963 E4.75476
G1 X119.328 Y103.041 E4.78126
G1 X120.222 Y103.169 E4.8113
G1 X121.167 Y103.389 E4.84357
G1 X121.841 Y103.587 E4.86694
G1 X122.289 Y103.732 E4.8826
G1 X123.165 Y104.059 E4.9137
G1 X123.829 Y104.367 E4.93804
G1 X124.484 Y104.708 E4.9626
G1 X124.871 Y104.923 E4.97733
G1 X125.669 Y105.414 E5.00849
G1 X126.343 Y105.91 E5.03632
G1 X126.666 Y106.168 E5.05007
G1 X127.217 Y106.632 E5.07403
G1 X127.917 Y107.288 E5.10594
G1 X128.538 Y107.981 E5.13689
G1 X129.034 Y108.588 E5.16296
G1 X129.574 Y109.312 E5.193
G1 X130.07 Y110.113 E5.22434
G1 X130.435 Y110.782 E5.24969
G1 X130.629 Y111.162 E5.26388
G1 X131.016 Y112.013 E5.29497
G1 X131.273 Y112.722 E5.32005
G1 X131.483 Y113.394 E5.34347
G1 X131.603 Y113.812 E5.35793
G1 X131.814 Y114.69 E5.38797
G1 X131.939 Y115.492 E5.41496
G1 X131.982 Y115.861 E5.42732
G1 X132.052 Y116.633 E5.4531
G1 X132.088 Y117.535 E5.48313
G1 X132.038 Y118.531 E5.5163
G1 X131.96 Y119.327 E5.5429
G1 X131.825 Y120.259 E5.57422
G1 X131.556 Y121.355 E5.61175
G1 X131.324 Y122.117 E5.63825
G1 X131.011 Y123.002 E5.66947
G1 X130.622 Y123.853 E5.70059
G1 X130.445 Y124.199 E5.71352
G1 X130.077 Y124.872 E5.73903
G1 X129.586 Y125.67 E5.77019
G1 X129.098 Y126.334 E5.7976
G1 X128.837 Y126.66 E5.81149
G1 X128.365 Y127.22 E5.83585
G1 X127.712 Y127.916 E5.86759
G1 X127.197 Y128.386 E5.89078
G1 X126.698 Y128.805 E5.91245
G1 X126.309 Y129.114 E5.92898
G1 X125.552 Y129.664 E5.9601
G1 X124.899 Y130.062 E5.98553
G1 X124.218 Y130.435 E6.01136
G1 X123.83 Y130.633 E6.02585
G1 X122.975 Y131.021 E6.05708
G1 X122.094 Y131.331 E6.08814
G1 X121.33 Y131.562 E6.11469
G1 X120.42 Y131.792 E6.1459
G1 X119.502 Y131.94 E6.17683
G0 F6000 X119.459 Y131.542
G1 F1200 X118.772 Y131.617 E6.19982
G1 X118.356 Y131.652 E6.2137
G1 X117.454 Y131.688 E6.24373
G1 X116.508 Y131.64 E6.27523
G1 X115.731 Y131.564 E6.3012
G1 X114.837 Y131.436 E6.33123
G1 X113.946 Y131.226 E6.36168
G1 X113.305 Y131.04 E6.38388
G1 X112.884 Y130.906 E6.39858
G1 X112.037 Y130.594 E6.4286
G1 X111.331 Y130.266 E6.45449
G1 X110.703 Y129.939 E6.47804
G1 X110.345 Y129.741 E6.49165
G1 X109.575 Y129.269 E6.52168
G1 X108.907 Y128.777 E6.54928
G1 X108.343 Y128.319 E6.57344
G1 X108.051 Y128.07 E6.58621
G1 X107.39 Y127.454 E6.61626
G1 X106.771 Y126.763 E6.64711
G1 X106.284 Y126.167 E6.67271
G1 X105.744 Y125.443 E6.70275
G1 X105.272 Y124.678 E6.73265
G1 X104.905 Y124.003 E6.75821
G1 X104.723 Y123.645 E6.77156
G1 X104.349 Y122.823 E6.8016
G1 X104.054 Y121.984 E6.83118
G1 X103.828 Y121.239 E6.85707
G1 X103.605 Y120.364 E6.88711
G1 X103.457 Y119.457 E6.91767
G1 X103.415 Y119.096 E6.92976
G1 X103.348 Y118.35 E6.95467
G1 X103.312 Y117.448 E6.9847
G1 X103.361 Y116.505 E7.0161
G1 X103.437 Y115.729 E7.04204
G1 X103.564 Y114.835 E7.07207
G1 X103.776 Y113.937 E7.10276
G1 X103.96 Y113.305 E7.12465
G1 X104.094 Y112.884 E7.13935
G1 X104.406 Y112.037 E7.16937
G1 X104.813 Y111.18 E7.20092
G1 X105.184 Y110.484 E7.22716
G1 X105.644 Y109.707 E7.25719
G1 X106.308 Y108.801 E7.29455
G1 X106.8 Y108.203 E7.3203
G1 X107.404 Y107.532 E7.35033
G1 X108.014 Y106.961 E7.37812
G1 X108.538 Y106.518 E7.40094
G1 X108.913 Y106.218 E7.41692
G1 X109.643 Y105.686 E7.44696
G1 X110.305 Y105.281 E7.47277
G1 X110.975 Y104.915 E7.49816
G1 X111.346 Y104.726 E7.51201
G1 X112.168 Y104.352 E7.54205
G1 X113.015 Y104.054 E7.57191
G1 X113.76 Y103.828 E7.59781
G1 X114.635 Y103.605 E7.62784
G1 X115.545 Y103.457 E7.6585
G1 X116.232 Y103.383 E7.68149
G1 X116.65 Y103.348 E7.69544
G1 X117.552 Y103.312 E7.72546
G1 X118.496 Y103.361 E7.7569
G1 X119.271 Y103.437 E7.7828
G1 X120.165 Y103.565 E7.81284
G1 X121.054 Y103.773 E7.84321
G1 X121.718 Y103.968 E7.86622
G1 X122.15 Y104.107 E7.88132
G1 X122.997 Y104.422 E7.91137
G1 X123.644 Y104.722 E7.9351
G1 X124.29 Y105.058 E7.95931
G1 X124.662 Y105.264 E7.97346
G1 X125.432 Y105.736 E8.0035
G1 X126.093 Y106.222 E8.03078
G1 X126.408 Y106.474 E8.0442
G1 X126.959 Y106.938 E8.06816
G1 X127.619 Y107.555 E8.09821
G1 X128.228 Y108.234 E8.12855
G1 X128.713 Y108.827 E8.15403
G1 X129.253 Y109.551 E8.18407
G1 X129.719 Y110.305 E8.21355
G1 X130.079 Y110.964 E8.23852
G1 X130.265 Y111.328 E8.25212
G1 X130.64 Y112.149 E8.28214
G1 X130.891 Y112.842 E8.30665
G1 X131.099 Y113.505 E8.32977
G1 X131.214 Y113.905 E8.34361
G1 X131.425 Y114.783 E8.37364
G1 X131.542 Y115.538 E8.39905
G1 X131.584 Y115.897 E8.41107
G1 X131.652 Y116.649 E8.43619
G1 X131.688 Y117.551 E8.46621
G1 X131.64 Y118.492 E8.49755
G1 X131.564 Y119.27 E8.52355
G1 X131.436 Y120.164 E8.55359
G1 X131.173 Y121.239 E8.5904
G1 X130.947 Y121.984 E8.61629
G1 X130.647 Y122.836 E8.64633
G1 X130.266 Y123.671 E8.67686
G1 X130.094 Y124.007 E8.68942
G1 X129.736 Y124.663 E8.71427
G1 X129.264 Y125.433 E8.74431
G1 X128.785 Y126.084 E8.77119
G1 X128.531 Y126.402 E8.78473
G1 X128.059 Y126.962 E8.80909
G1 X127.442 Y127.621 E8.83911
G1 X126.94 Y128.08 E8.86174
G1 X126.449 Y128.492 E8.88306
G1 X126.074 Y128.791 E8.89901
G1 X125.344 Y129.322 E8.92903
G1 X124.706 Y129.711 E8.95389
G1 X124.036 Y130.079 E8.97931
G1 X123.664 Y130.269 E8.9932
G1 X122.842 Y130.644 E9.02325
G1 X121.978 Y130.948 E9.05372
G1 X121.231 Y131.174 E9.07968
G1 X120.356 Y131.397 E9.10971
G1 X119.459 Y131.542 E9.13993
G1 F1500 E2.63993
;MESH:my3dcanal.stl
G0 F6000 X117.584 Y122.157
G0 X117.499 Y121.295
;TYPE:WALL-OUTER
G1 F1500 E9.13993
G1 F1200 X116.76 Y121.222 E9.16463
G1 X116.049 Y121.006 E9.18934
G1 X115.384 Y120.652 E9.2144
G1 X114.815 Y120.181 E9.23897
G1 X114.344 Y119.612 E9.26354
G1 X113.99 Y118.947 E9.28859
G1 X113.774 Y118.236 E9.31331
G1 X113.701 Y117.499 E9.33794
G1 X113.774 Y116.76 E9.36264
G1 X113.99 Y116.049 E9.38735
G1 X114.344 Y115.384 E9.41241
G1 X114.815 Y114.815 E9.43698
G1 X115.384 Y114.344 E9.46155
G1 X116.049 Y113.99 E9.4866
G1 X116.76 Y113.774 E9.51132
G1 X117.499 Y113.701 E9.53602
G1 X118.236 Y113.774 E9.56065
G1 X118.947 Y113.99 E9.58536
G1 X119.612 Y114.344 E9.61042
G1 X120.181 Y114.815 E9.63499
G1 X120.652 Y115.384 E9.65956
G1 X121.006 Y116.049 E9.68461
G1 X121.222 Y116.76 E9.70933
G1 X121.295 Y117.499 E9.73403
G1 X121.222 Y118.236 E9.75866
G1 X121.006 Y118.947 E9.78337
G1 X120.652 Y119.612 E9.80843
G1 X120.181 Y120.181 E9.833
G1 X119.612 Y120.652 E9.85757
G1 X118.947 Y121.006 E9.88262
G1 X118.236 Y121.222 E9.90734
G1 X117.499 Y121.295 E9.93197
G0 F6000 X117.496 Y120.931
;TYPE:SKIN
G1 F1200 X116.832 Y120.866 E9.95416
G1 X116.189 Y120.67 E9.97652
G1 X115.581 Y120.349 E9.99939
G1 X115.071 Y119.922 E10.02151
G1 X114.647 Y119.411 E10.04359
G1 X114.322 Y118.806 E10.06644
G1 X114.126 Y118.16 E10.08889
G1 X114.061 Y117.496 E10.11108
G1 X114.126 Y116.832 E10.13327
G1 X114.322 Y116.19 E10.1556
G1 X114.647 Y115.581 E10.17855
G1 X115.071 Y115.071 E10.20061
G1 X115.581 Y114.647 E10.22267
G1 X116.19 Y114.322 E10.24563
G1 X116.832 Y114.126 E10.26796
G1 X117.496 Y114.061 E10.29015
G1 X118.16 Y114.126 E10.31234
G1 X118.806 Y114.322 E10.33479
G1 X119.411 Y114.647 E10.35763
G1 X119.922 Y115.071 E10.37972
G1 X120.349 Y115.581 E10.40184
G1 X120.67 Y116.189 E10.42471
G1 X120.866 Y116.832 E10.44707
G1 X120.931 Y117.496 E10.46926
G1 X120.866 Y118.16 E10.49145
G1 X120.67 Y118.807 E10.51393
G1 X120.349 Y119.411 E10.53668
G1 X119.921 Y119.922 E10.55885
G1 X119.411 Y120.349 E10.58098
G1 X118.807 Y120.67 E10.60373
G1 X118.16 Y120.866 E10.62621
G1 X117.496 Y120.931 E10.6484
G1 F1500 E4.1484
G0 F6000 X115.014 Y119.539
G1 F1500 E10.6484
G1 F1200 X115.466 Y119.992 E10.66969
G0 F6000 X116.638 Y120.598
G1 F1200 X114.393 Y118.353 E10.77528
G0 F6000 X114.279 Y117.673
G1 F1200 X117.318 Y120.712 E10.91823
G0 F6000 X117.866 Y120.694
G1 F1200 X114.297 Y117.126 E11.08608
G0 F6000 X114.389 Y116.652
G1 F1200 X118.339 Y120.602 E11.27188
G0 F6000 X118.767 Y120.464
G1 F1200 X114.529 Y116.226 E11.47122
G0 F6000 X114.726 Y115.857
G1 F1200 X119.137 Y120.268 E11.6787
G0 F6000 X119.471 Y120.037
G1 F1200 X114.956 Y115.521 E11.89109
G0 F6000 X115.213 Y115.213
G1 F1200 X119.78 Y119.78 E12.10591
G0 F6000 X120.038 Y119.472
G1 F1200 X115.522 Y114.956 E12.31833
G0 F6000 X115.858 Y114.727
G1 F1200 X120.268 Y119.137 E12.52576
G0 F6000 X120.465 Y118.768
G1 F1200 X116.227 Y114.53 E12.72511
G0 F6000 X116.653 Y114.39
G1 F1200 X120.603 Y118.34 E12.9109
G0 F6000 X120.695 Y117.866
G1 F1200 X117.127 Y114.298 E13.07873
G0 F6000 X117.674 Y114.28
G1 F1200 X120.713 Y117.319 E13.22167
G0 F6000 X120.598 Y116.639
G1 F1200 X118.353 Y114.394 E13.32727
G0 F6000 X119.539 Y115.014
G1 F1200 X119.992 Y115.467 E13.34858
G1 F1500 E6.84858
;MESH:NONMESH
G0 F300 X119.992 Y115.467 Z0.4
G0 F6000 X121.094 Y114.56
G0 X121.38 Y114.908
G0 X121.81 Y115.715
G0 X122.076 Y116.591
G0 X122.166 Y117.5
G0 X122.115 Y118.015
G0 X119.459 Y131.542
;TIME_ELAPSED:28.360519
;LAYER:1
;note -- min layer time used
M106 S85
;TYPE:SKIRT
G1 F1500 E13.34858
G1 F1200 X118.772 Y131.617 E13.37157
G1 X118.356 Y131.652 E13.38545
G1 X117.454 Y131.688 E13.41548
G1 X116.508 Y131.64 E13.44698
G1 X115.731 Y131.564 E13.47295
G1 X114.837 Y131.436 E13.50298
G1 X113.946 Y131.226 E13.53343
G1 X113.305 Y131.04 E13.55563
G1 X112.884 Y130.906 E13.57032
G1 X112.037 Y130.594 E13.60035
G1 X111.331 Y130.266 E13.62624
G1 X110.703 Y129.939 E13.64979
G1 X110.345 Y129.741 E13.66339
G1 X109.575 Y129.269 E13.69343
G1 X108.907 Y128.777 E13.72103
