;FLAVOR:Marlin
;TIME:2377
;Filament used: 1.72367m
;Layer height: 0.2
;MINX:81.581
;MINY:81.581
;MINZ:0.2
;MAXX:153.419
;MAXY:153.419
;MAXZ:24.8
;TARGET_MACHINE.NAME:Creality CR-6 SE
;Generated with Cura_SteamEngine 5.9.1
M140 S60
M105
M190 S60
M104 S220
M105
M109 S220
M82 ;absolute extrusion mode
M201 X500.00 Y500.00 Z100.00 E5000.00 ;Setup machine max acceleration
M203 X500.00 Y500.00 Z10.00 E50.00 ;Setup machine max feedrate
M204 P500.00 R1000.00 T500.00 ;Setup Print/Retract/Travel acceleration
M205 X8.00 Y8.00 Z0.40 E5.00 ;Setup Jerk
M220 S100 ;Reset Feedrate
M221 S100 ;Reset Flowrate

G28 ;Home

G92 E0 ;Reset Extruder
G1 Z2.0 F3000 ;Move Z Axis up
G1 X10.1 Y20 Z0.28 F5000.0 ;Move to start position
G1 X10.1 Y200.0 Z0.28 F1500.0 E15 ;Draw the first line
G1 X10.4 Y200.0 Z0.28 F5000.0 ;Move to side a little
G1 X10.4 Y20 Z0.28 F1500.0 E30 ;Draw the second line
G92 E0 ;Reset Extruder
G1 Z2.0 F3000 ;Move Z Axis up

G92 E0
G92 E0
G1 F1500 E-6.5
;LAYER_COUNT:124
;LAYER:0
M107
G0 F6000 X119.135 Y153.321 Z0.2
;TYPE:SKIRT
G1 F1500 E0
G1 F1200 X118.39 Y153.383 E0.02486
G1 X117.421 Y153.419 E0.05712
G1 X116.57 Y153.381 E0.08545
G1 X115.724 Y153.307 E0.11369
G1 X112.09 Y152.947 E0.23515
G1 X111.306 Y152.856 E0.2614
G1 X110.414 Y152.712 E0.29146
G1 X109.552 Y152.5 E0.32098
G1 X108.804 Y152.283 E0.34688
G1 X105.426 Y151.258 E0.4643
G1 X104.584 Y150.988 E0.49371
G1 X103.706 Y150.663 E0.52484
G1 X102.942 Y150.308 E0.55286
G1 X102.193 Y149.922 E0.58089
G1 X98.947 Y148.186 E0.70332
G1 X98.31 Y147.832 E0.72756
G1 X97.486 Y147.324 E0.75976
G1 X96.853 Y146.86 E0.78586
G1 X96.167 Y146.317 E0.81496
G1 X93.393 Y144.041 E0.9343
G1 X92.753 Y143.501 E0.96216
G1 X92.067 Y142.865 E0.99327
G1 X91.496 Y142.242 E1.02138
G1 X90.95 Y141.597 E1.04948
G1 X88.716 Y138.875 E1.16661
G1 X88.165 Y138.184 E1.196
G1 X87.604 Y137.41 E1.22779
G1 X87.132 Y136.632 E1.25806
G1 X86.815 Y136.054 E1.27999
G1 X85.023 Y132.698 E1.40652
G1 X84.691 Y132.054 E1.43062
G1 X84.286 Y131.173 E1.46287
G1 X84.01 Y130.412 E1.4898
G1 X83.759 Y129.629 E1.51714
G1 X82.696 Y126.118 E1.63916
G1 X82.481 Y125.371 E1.66501
G1 X82.258 Y124.429 E1.69721
G1 X82.13 Y123.594 E1.7253
G1 X82.047 Y122.865 E1.74971
G1 X81.679 Y119.135 E1.87437
G1 X81.617 Y118.39 E1.89923
G1 X81.581 Y117.421 E1.93149
G1 X81.619 Y116.569 E1.95985
G1 X81.68 Y115.863 E1.98342
G1 X82.052 Y112.097 E2.10929
G1 X82.136 Y111.358 E2.13402
G1 X82.29 Y110.402 E2.16623
G1 X82.476 Y109.643 E2.19222
G1 X82.717 Y108.804 E2.22126
G1 X83.742 Y105.426 E2.33867
G1 X84.012 Y104.584 E2.36808
G1 X84.337 Y103.706 E2.39922
G1 X84.692 Y102.942 E2.42724
G1 X85.077 Y102.196 E2.45516
G1 X86.74 Y99.082 E2.57257
G1 X87.188 Y98.274 E2.6033
G1 X87.661 Y97.505 E2.63333
G1 X88.178 Y96.799 E2.66243
G1 X88.683 Y96.167 E2.68934
G1 X90.958 Y93.394 E2.80864
G1 X91.501 Y92.751 E2.83663
G1 X92.114 Y92.088 E2.86666
G1 X92.76 Y91.496 E2.89581
G1 X93.403 Y90.951 E2.92384
G1 X96.268 Y88.604 E3.04702
G1 X96.865 Y88.131 E3.07236
G1 X97.651 Y87.564 E3.10459
G1 X98.336 Y87.151 E3.1312
G1 X98.938 Y86.82 E3.15405
G1 X102.303 Y85.023 E3.28093
G1 X102.947 Y84.691 E3.30502
G1 X103.828 Y84.286 E3.33727
G1 X104.585 Y84.011 E3.36406
G1 X105.371 Y83.759 E3.39151
G1 X108.882 Y82.696 E3.51353
G1 X109.629 Y82.481 E3.53938
G1 X110.571 Y82.258 E3.57158
G1 X111.406 Y82.13 E3.59967
G1 X112.135 Y82.047 E3.62408
G1 X115.865 Y81.679 E3.74874
G1 X116.61 Y81.617 E3.7736
G1 X117.579 Y81.581 E3.80585
G1 X118.431 Y81.619 E3.83422
G1 X119.137 Y81.68 E3.85779
G1 X122.908 Y82.053 E3.98383
G1 X123.693 Y82.144 E4.01011
G1 X124.584 Y82.288 E4.04013
G1 X125.448 Y82.5 E4.06972
G1 X126.196 Y82.717 E4.09562
G1 X129.574 Y83.742 E4.21303
G1 X130.416 Y84.012 E4.24244
G1 X131.294 Y84.337 E4.27358
G1 X132.058 Y84.692 E4.3016
G1 X132.808 Y85.078 E4.32966
G1 X135.918 Y86.742 E4.44697
G1 X136.708 Y87.178 E4.47698
G1 X137.506 Y87.669 E4.50815
G1 X138.2 Y88.178 E4.53677
G1 X138.833 Y88.683 E4.5637
G1 X141.607 Y90.959 E4.68305
G1 X142.247 Y91.499 E4.7109
G1 X142.933 Y92.135 E4.74201
G1 X143.504 Y92.758 E4.77012
G1 X144.05 Y93.403 E4.79823
G1 X146.284 Y96.127 E4.9154
G1 X146.852 Y96.84 E4.94572
G1 X147.383 Y97.571 E4.97577
G1 X147.855 Y98.35 E5.00607
G1 X148.239 Y99.044 E5.03245
G1 X149.99 Y102.321 E5.15602
G1 X150.319 Y102.962 E5.17999
G1 X150.696 Y103.783 E5.21004
G1 X150.986 Y104.577 E5.23815
G1 X151.241 Y105.371 E5.26589
G1 X152.302 Y108.877 E5.38772
G1 X152.518 Y109.624 E5.41358
G1 X152.73 Y110.502 E5.44363
G1 X152.874 Y111.421 E5.47456
G1 X152.966 Y112.262 E5.5027
G1 X153.308 Y115.724 E5.61841
G1 X153.382 Y116.604 E5.64778
G1 X153.419 Y117.575 E5.6801
G1 X153.381 Y118.426 E5.70843
G1 X153.307 Y119.275 E5.73678
G1 X152.947 Y122.907 E5.85817
G1 X152.856 Y123.692 E5.88446
G1 X152.712 Y124.583 E5.91447
G1 X152.501 Y125.441 E5.94386
G1 X152.283 Y126.196 E5.97
G1 X151.258 Y129.574 E6.08741
G1 X150.988 Y130.416 E6.11682
G1 X150.663 Y131.294 E6.14796
G1 X150.308 Y132.058 E6.17598
G1 X149.923 Y132.804 E6.2039
G1 X148.26 Y135.918 E6.32132
G1 X147.812 Y136.726 E6.35205
G1 X147.339 Y137.495 E6.38207
G1 X146.822 Y138.201 E6.41118
G1 X146.317 Y138.833 E6.43808
G1 X144.042 Y141.606 E6.55738
G1 X143.499 Y142.249 E6.58537
G1 X142.886 Y142.912 E6.61541
G1 X142.242 Y143.504 E6.6445
G1 X141.597 Y144.05 E6.67261
G1 X138.875 Y146.284 E6.78973
G1 X138.184 Y146.835 E6.81912
G1 X137.41 Y147.396 E6.85092
G1 X136.632 Y147.868 E6.88118
G1 X136.054 Y148.185 E6.90311
G1 X132.698 Y149.978 E7.02966
G1 X132.071 Y150.301 E7.05312
G1 X131.176 Y150.712 E7.08588
G1 X130.419 Y150.988 E7.11268
G1 X129.629 Y151.241 E7.14027
G1 X126.118 Y152.304 E7.26228
G1 X125.371 Y152.519 E7.28813
G1 X124.429 Y152.742 E7.32033
G1 X123.594 Y152.87 E7.34843
G1 X122.865 Y152.953 E7.37283
G1 X119.135 Y153.321 E7.49749
G0 F6000 X119.102 Y152.922
G1 F1200 X118.375 Y152.983 E7.52176
G1 X117.439 Y153.019 E7.55291
G1 X116.605 Y152.982 E7.58068
G1 X115.763 Y152.909 E7.60879
G1 X112.136 Y152.55 E7.73001
G1 X111.37 Y152.461 E7.75566
G1 X110.478 Y152.317 E7.78571
G1 X109.664 Y152.116 E7.8136
G1 X108.92 Y151.9 E7.83937
G1 X105.548 Y150.877 E7.95657
G1 X104.723 Y150.613 E7.98538
G1 X103.845 Y150.288 E8.01652
G1 X103.125 Y149.952 E8.04294
G1 X102.382 Y149.569 E8.07075
G1 X99.141 Y147.836 E8.19299
G1 X98.519 Y147.491 E8.21664
G1 X97.722 Y147.001 E8.24776
G1 X97.101 Y146.547 E8.27335
G1 X96.421 Y146.008 E8.30221
G1 X93.651 Y143.735 E8.42138
G1 X93.025 Y143.207 E8.44862
G1 X92.362 Y142.594 E8.47865
G1 X91.801 Y141.983 E8.50624
G1 X91.259 Y141.343 E8.53414
G1 X89.029 Y138.625 E8.65107
G1 X88.489 Y137.949 E8.67985
G1 X87.928 Y137.175 E8.71164
G1 X87.483 Y136.44 E8.74022
G1 X87.168 Y135.866 E8.762
G1 X85.378 Y132.515 E8.88836
G1 X85.054 Y131.887 E8.91186
G1 X84.662 Y131.036 E8.94302
G1 X84.391 Y130.29 E8.96942
G1 X84.142 Y129.513 E8.99656
G1 X83.08 Y126.007 E9.1184
G1 X82.87 Y125.278 E9.14363
G1 X82.653 Y124.368 E9.17475
G1 X82.527 Y123.549 E9.20231
G1 X82.445 Y122.826 E9.22651
G1 X82.078 Y119.102 E9.35097
G1 X82.017 Y118.375 E9.37524
G1 X81.981 Y117.439 E9.40639
G1 X82.018 Y116.603 E9.43422
G1 X82.078 Y115.902 E9.45762
G1 X82.449 Y112.142 E9.58329
G1 X82.531 Y111.421 E9.60742
G1 X82.679 Y110.497 E9.63855
G1 X82.865 Y109.738 E9.66454
G1 X83.1 Y108.92 E9.69285
G1 X84.123 Y105.548 E9.81005
G1 X84.387 Y104.723 E9.83886
G1 X84.712 Y103.845 E9.87
G1 X85.048 Y103.125 E9.89642
G1 X85.43 Y102.384 E9.92415
G1 X87.09 Y99.276 E10.04135
G1 X87.529 Y98.484 E10.07146
G1 X88.002 Y97.715 E10.10149
G1 X88.49 Y97.049 E10.12895
G1 X88.992 Y96.421 E10.15569
G1 X91.264 Y93.652 E10.27482
G1 X91.795 Y93.023 E10.3022
G1 X92.408 Y92.36 E10.33224
G1 X93.018 Y91.801 E10.35976
G1 X93.657 Y91.26 E10.3876
G1 X96.516 Y88.917 E10.51055
G1 X97.099 Y88.455 E10.53529
G1 X97.858 Y87.907 E10.56642
G1 X98.543 Y87.494 E10.59303
G1 X99.126 Y87.173 E10.61516
G1 X102.486 Y85.378 E10.74186
G1 X103.114 Y85.054 E10.76537
G1 X103.965 Y84.662 E10.79653
G1 X104.707 Y84.392 E10.82279
G1 X105.487 Y84.142 E10.85004
G1 X108.993 Y83.08 E10.97188
G1 X109.722 Y82.87 E10.99711
G1 X110.632 Y82.653 E11.02823
G1 X111.451 Y82.527 E11.05579
G1 X112.174 Y82.445 E11.07999
G1 X115.898 Y82.078 E11.20445
G1 X116.625 Y82.017 E11.22871
G1 X117.561 Y81.981 E11.25987
G1 X118.397 Y82.018 E11.2877
G1 X119.098 Y82.078 E11.3111
G1 X122.862 Y82.45 E11.4369
G1 X123.629 Y82.539 E11.46258
G1 X124.52 Y82.683 E11.4926
G1 X125.336 Y82.884 E11.52056
G1 X126.08 Y83.1 E11.54632
G1 X129.452 Y84.123 E11.66352
G1 X130.277 Y84.387 E11.69233
G1 X131.155 Y84.712 E11.72347
G1 X131.875 Y85.048 E11.7499
G1 X132.619 Y85.431 E11.77773
G1 X135.725 Y87.092 E11.89488
G1 X136.498 Y87.519 E11.92425
G1 X137.296 Y88.01 E11.95542
G1 X137.951 Y88.491 E11.98244
G1 X138.579 Y88.992 E12.00916
G1 X141.349 Y91.265 E12.12834
G1 X141.975 Y91.793 E12.15558
G1 X142.638 Y92.406 E12.18561
G1 X143.199 Y93.017 E12.2132
G1 X143.741 Y93.657 E12.2411
G1 X145.971 Y96.376 E12.35806
G1 X146.528 Y97.075 E12.38778
G1 X147.059 Y97.806 E12.41783
G1 X147.505 Y98.543 E12.44649
G1 X147.886 Y99.233 E12.4727
G1 X149.634 Y102.504 E12.59606
G1 X149.955 Y103.129 E12.61942
G1 X150.332 Y103.95 E12.64947
G1 X150.605 Y104.699 E12.67599
G1 X150.858 Y105.487 E12.70351
G1 X151.918 Y108.988 E12.82518
G1 X152.129 Y109.718 E12.85045
G1 X152.341 Y110.596 E12.88049
G1 X152.476 Y111.465 E12.90974
G1 X152.568 Y112.301 E12.93772
G1 X152.909 Y115.758 E13.05325
G1 X152.982 Y116.62 E13.08203
G1 X153.019 Y117.557 E13.11322
G1 X152.982 Y118.392 E13.14102
G1 X152.909 Y119.236 E13.16919
G1 X152.55 Y122.861 E13.29035
G1 X152.461 Y123.628 E13.31603
G1 X152.317 Y124.519 E13.34605
G1 X152.117 Y125.33 E13.37383
G1 X151.9 Y126.08 E13.3998
G1 X150.877 Y129.452 E13.517
G1 X150.613 Y130.277 E13.54581
G1 X150.288 Y131.155 E13.57695
G1 X149.952 Y131.875 E13.60338
G1 X149.57 Y132.616 E13.63111
G1 X147.91 Y135.724 E13.7483
G1 X147.471 Y136.516 E13.77842
G1 X146.998 Y137.285 E13.80845
G1 X146.51 Y137.951 E13.83591
G1 X146.008 Y138.579 E13.86265
G1 X143.736 Y141.348 E13.98178
G1 X143.205 Y141.977 E14.00916
G1 X142.592 Y142.64 E14.03919
G1 X141.983 Y143.199 E14.06668
G1 X141.343 Y143.741 E14.09458
G1 X138.625 Y145.971 E14.21151
G1 X137.949 Y146.511 E14.24029
G1 X137.175 Y147.072 E14.27208
G1 X136.44 Y147.517 E14.30066
G1 X135.866 Y147.832 E14.32244
G1 X132.515 Y149.622 E14.4488
G1 X131.888 Y149.945 E14.47226
G1 X131.039 Y150.336 E14.50334
G1 X130.297 Y150.607 E14.52962
G1 X129.513 Y150.858 E14.557
G1 X126.007 Y151.92 E14.67884
G1 X125.278 Y152.13 E14.70407
G1 X124.368 Y152.347 E14.73519
G1 X123.549 Y152.473 E14.76275
G1 X122.826 Y152.555 E14.78695
G1 X119.102 Y152.922 E14.91141
G0 F6000 X119.068 Y152.523
G1 F1200 X118.359 Y152.583 E14.93508
G1 X117.457 Y152.619 E14.9651
G1 X116.639 Y152.583 E14.99233
G1 X115.802 Y152.511 E15.02028
G1 X112.182 Y152.153 E15.14127
G1 X111.434 Y152.066 E15.16631
G1 X110.542 Y151.922 E15.19636
G1 X109.776 Y151.732 E15.22261
G1 X109.036 Y151.517 E15.24824
G1 X105.67 Y150.496 E15.36523
G1 X104.861 Y150.238 E15.39348
G1 X104.014 Y149.926 E15.4235
G1 X103.308 Y149.596 E15.44942
G1 X102.571 Y149.216 E15.477
G1 X99.335 Y147.486 E15.59904
G1 X98.728 Y147.15 E15.62212
G1 X97.958 Y146.678 E15.65216
G1 X97.349 Y146.233 E15.67724
G1 X96.675 Y145.699 E15.70584
G1 X93.909 Y143.429 E15.82486
G1 X93.297 Y142.913 E15.85148
G1 X92.634 Y142.3 E15.88151
G1 X92.106 Y141.724 E15.9075
G1 X91.568 Y141.089 E15.93518
G1 X89.342 Y138.375 E16.05193
G1 X88.802 Y137.699 E16.08071
G1 X88.27 Y136.968 E16.11078
G1 X87.834 Y136.247 E16.1388
G1 X87.521 Y135.677 E16.16043
G1 X85.733 Y132.331 E16.28661
G1 X85.417 Y131.719 E16.30952
G1 X85.038 Y130.899 E16.33957
G1 X84.772 Y130.168 E16.36544
G1 X84.525 Y129.397 E16.39237
G1 X83.464 Y125.896 E16.51404
G1 X83.259 Y125.185 E16.53865
G1 X83.048 Y124.307 E16.56868
G1 X82.924 Y123.504 E16.59571
G1 X82.843 Y122.787 E16.61971
G1 X82.477 Y119.068 E16.744
G1 X82.417 Y118.359 E16.76767
G1 X82.381 Y117.457 E16.79769
G1 X82.417 Y116.637 E16.82499
G1 X82.476 Y115.941 E16.84822
G1 X82.846 Y112.187 E16.97369
G1 X82.926 Y111.484 E16.99722
G1 X83.068 Y110.592 E17.02726
G1 X83.254 Y109.833 E17.05325
G1 X83.483 Y109.036 E17.08083
G1 X84.504 Y105.67 E17.19782
G1 X84.762 Y104.861 E17.22607
G1 X85.074 Y104.014 E17.25609
G1 X85.404 Y103.308 E17.28201
G1 X85.783 Y102.572 E17.30954
G1 X87.44 Y99.47 E17.42651
G1 X87.87 Y98.694 E17.45602
G1 X88.343 Y97.925 E17.48605
G1 X88.803 Y97.299 E17.51189
G1 X89.301 Y96.675 E17.53844
G1 X91.57 Y93.91 E17.6574
G1 X92.089 Y93.295 E17.68417
G1 X92.702 Y92.632 E17.7142
G1 X93.276 Y92.106 E17.7401
G1 X93.911 Y91.569 E17.76776
G1 X96.764 Y89.23 E17.89046
G1 X97.333 Y88.779 E17.91461
G1 X98.065 Y88.25 E17.94465
G1 X98.75 Y87.837 E17.97125
G1 X99.315 Y87.526 E17.9927
G1 X102.67 Y85.733 E18.11923
G1 X103.282 Y85.417 E18.14214
G1 X104.102 Y85.038 E18.17218
G1 X104.829 Y84.773 E18.19792
G1 X105.603 Y84.525 E18.22495
G1 X109.104 Y83.464 E18.34662
G1 X109.815 Y83.259 E18.37124
G1 X110.693 Y83.048 E18.40127
G1 X111.496 Y82.924 E18.42829
G1 X112.213 Y82.843 E18.45229
G1 X115.932 Y82.477 E18.57658
G1 X116.641 Y82.417 E18.60025
G1 X117.543 Y82.381 E18.63027
G1 X118.363 Y82.417 E18.65757
G1 X119.059 Y82.476 E18.68081
G1 X122.816 Y82.847 E18.80637
G1 X123.565 Y82.934 E18.83145
G1 X124.456 Y83.078 E18.86147
G1 X125.224 Y83.268 E18.88779
G1 X125.964 Y83.483 E18.91342
G1 X129.33 Y84.504 E19.03041
G1 X130.139 Y84.762 E19.05865
G1 X130.986 Y85.074 E19.08867
G1 X131.692 Y85.404 E19.11459
G1 X132.43 Y85.784 E19.1422
G1 X135.532 Y87.442 E19.25919
G1 X136.289 Y87.86 E19.28795
G1 X137.059 Y88.332 E19.31799
G1 X137.702 Y88.804 E19.34452
G1 X138.325 Y89.301 E19.37102
G1 X141.091 Y91.571 E19.49003
G1 X141.703 Y92.087 E19.51666
G1 X142.366 Y92.7 E19.54669
G1 X142.894 Y93.276 E19.57268
G1 X143.432 Y93.911 E19.60036
G1 X145.658 Y96.625 E19.71711
G1 X146.204 Y97.31 E19.74624
G1 X146.735 Y98.041 E19.77629
G1 X147.155 Y98.736 E19.8033
G1 X147.533 Y99.422 E19.82935
G1 X149.278 Y102.687 E19.95249
G1 X149.591 Y103.296 E19.97526
G1 X149.968 Y104.117 E20.00531
G1 X150.224 Y104.821 E20.03022
G1 X150.475 Y105.603 E20.05754
G1 X151.534 Y109.099 E20.17903
G1 X151.74 Y109.812 E20.20372
G1 X151.952 Y110.69 E20.23376
G1 X152.078 Y111.509 E20.26132
G1 X152.17 Y112.34 E20.28913
G1 X152.51 Y115.792 E20.4045
G1 X152.582 Y116.636 E20.43267
G1 X152.619 Y117.539 E20.46273
G1 X152.583 Y118.358 E20.49
G1 X152.511 Y119.197 E20.518
G1 X152.153 Y122.815 E20.63893
G1 X152.066 Y123.564 E20.66401
G1 X151.922 Y124.455 E20.69403
G1 X151.733 Y125.219 E20.7202
G1 X151.517 Y125.964 E20.746
G1 X150.496 Y129.33 E20.86299
G1 X150.238 Y130.139 E20.89124
G1 X149.926 Y130.986 E20.92126
G1 X149.596 Y131.692 E20.94718
G1 X149.217 Y132.428 E20.97471
G1 X147.56 Y135.53 E21.09168
G1 X147.13 Y136.306 E21.12119
G1 X146.657 Y137.075 E21.15122
G1 X146.197 Y137.701 E21.17706
G1 X145.699 Y138.325 E21.20361
G1 X143.43 Y141.09 E21.32257
G1 X142.911 Y141.705 E21.34934
G1 X142.298 Y142.368 E21.37937
G1 X141.724 Y142.894 E21.40527
G1 X141.089 Y143.432 E21.43295
G1 X138.375 Y145.658 E21.5497
G1 X137.699 Y146.198 E21.57847
G1 X136.968 Y146.73 E21.60854
G1 X136.247 Y147.166 E21.63657
G1 X135.677 Y147.479 E21.65819
G1 X132.331 Y149.267 E21.78438
G1 X131.721 Y149.582 E21.80721
G1 X130.901 Y149.96 E21.83724
G1 X130.175 Y150.226 E21.86296
G1 X129.397 Y150.475 E21.89013
G1 X125.896 Y151.536 E22.0118
G1 X125.185 Y151.741 E22.03641
G1 X124.307 Y151.952 E22.06645
G1 X123.504 Y152.076 E22.09347
G1 X122.787 Y152.157 E22.11747
G1 X119.068 Y152.523 E22.24176
G1 F1500 E15.74176
;MESH:my3dfunnel.stl
G0 F6000 X117.584 Y143.088
G0 X117.5 Y142.227
;TYPE:WALL-OUTER
G1 F1500 E22.24176
G1 F1200 X112.68 Y141.75 E22.40286
G1 X108.037 Y140.342 E22.56423
